X:1
T:# / 8 bach: ich freue mich auf meinen tod
%%score 1 { ( 2 3 6 ) | ( 4 5 ) }
L:1/8
Q:1/4=60
M:3/8
K:C
V:1 treble nm="Midi_71"
V:2 treble nm="Midi_1"
V:3 treble 
V:6 treble 
V:4 bass 
V:5 bass 
V:1
 z | z3 | z3 | z3 | z3 | z3 |[M:3/8] z3 | z3 | z3 | z3 | z3 | z3 ||[K:Bb][M:3/8][K:bass] z3 | z3 | %14
w: ||||||||||||||
 z3 | z3 | z3 | z z G, | C/G,/_A,/G,/F,/G,/ | C/G,/_A,/G,/F,/G,/ | D/G,/_A,/G,/F,/G,/ | %21
w: |||Ich|freu * * * * *|||
 D/G,/_A,/G,/F,/G,/ | E/D/C/=B,/C | _A,G,F, | =B,/C/DF, | E,2 G, | G,3- | G,/A,/ =B,/C/D | %28
w: |* * * * e|mich * auf|mei * * nen|Tod, ich|freu-|* * e * mich|
 (F,/E,/) (D,/C,/)D, | G,,3- | G,,3 | G,,2 z | z3 | z3 | z3 | z3 |[M:3/8] z3 | z3 | z3 | z3 | z3 | %41
w: auf * mei * \-nen|Tod!||||||||||||
 z3 |[M:3/8] z3 | z z G,, | C,/D,/E,/F,/G,/_A,/ | =B,,/C,/ D,/E,/F, | F,/E,/ D,/C,/D, | G,,2 D, | %48
w: ||Ich|freu * * * * *|* * e * mich|auf * mei * \-nem|Tod, ach|
 E,D,E, | C, (G,3/2_A,/4B,/4) | _A,F,=E, | F,/G,/ _A,/B,/C | D,E,F, | B,, F,3/2G,/4_A,/4 | G,E,D, | %55
w: haett' * er|sich schon * *|ein * ge-|fun * den, * ach!|haett' * er|sich schon * *|ein * ge|
 E,/F,/ G,/_A,/ B,/G,/ | E TC3/2B,/4C/4 | D2 G, | (CB,/!courtesy!=A,/) B,/G,/ | ^F,>=E,D, | %60
w: fun * den, * ach! *|haett' er * *|sich schon|ein * * ge- *|fun- * den;|
 ^F,TG,A, | D,2 z | ^F,TG,A, | C,C z | z B,/A,/B, | z A,/^F,/G,- | G,/A,/ TA,>G, | G,2 z | z3 | %69
w: ich freu- e|mich|auf mei- nen|Tod, ach!|haett' er sich|schon * ein-|* ge- fun- *|den.||
 z3 | z3 | z3 |[M:3/8] z3 | z3 | z3 | z3 | z3 | z3 |[M:3/8] z3 | z3 | z3 | z3 | z3 | z3 | %84
w: |||||||||||||||
[M:3/8] z3 | z3 | z D,{G,A,}B, | (A,^C,)D, | (A,/=B,/) TB,>C | C E/D/ C/B,/ | A,/G,/ A,/F,/B,- | %91
w: ||Da ent-|komm' * ich|al * ler *|Noth, da * ent~- *|komm' * ich * al-|
 B,/G,/ TE,>D, | D,2 D,- | D, G,/^F,/G,- | G, !courtesy!=F,/E,/ D,/C,/ | C TA,2 | B,3- | B,_A,G, | %98
w: * * ler *|Noth, die|* mich * noch|* auf * der *|Welt ge-|bun-||
 _A,3- | A,G,F, | G,3- | G,F,E, | D, E,/D,/ C,/B,,/ | B,C_D | CF,B,- | B,E,_A,- | A,D,G,- | %107
w: |||* den, da|ent- komm' * ich *|al * ler|Noth, die mich|* noch auf|* der Welt|
 G,F,/G,/ _A,/F,/ | D,3- | D,E,F, | B,,3- | B,,E,G, | _A,3- | A,/G,/_A,/F,/G,- | G,/_A,/ F,>E, | %115
w: * * * ge- *|bun-|||||* den, auf der Welt|\_ ge- bun *|
 E,2 z | z3 | z3 | z3 | z z G, | C/G,/_A,/G,/F,/G,/ | C/G,/_A,/G,/F,/G,/ | D/G,/_A,/G,/F,/G,/ | %123
w: den.||||Ich|freu * * * * *|||
 D/G,/_A,/G,/F,/G,/ | E/D/C/=B,/C | _A,G,F, | =B,/C/DF, | E,2 G, | G,3- | G,/A,/ =B,/C/D | %130
w: |* * * * e|mich * auf|mei * * nen|Tod, ich|freu~-|* * e * mich|
 (F,/E,/) (D,/C,/)D, | G,,3- | G,,3 | G,,2 z | z3 | z3 | z3 | z3 |[M:3/8] z3 | z3 | z3 | z3 | z3 | %143
w: auf * mei- * nen|Tod!||||||||||||
 z3 |[M:3/8] z3 | z z G,, | C,/D,/E,/F,/G,/_A,/ | =B,,/C,/ D,/E,/F, | F,/E,/ D,/C,/D, | G,,2 D, | %150
w: ||Ich|freu * * * * *|* * e * mich|auf * mei * \-nen|Tod, ach!|
 E,D,E, | C, (G,3/2_A,/4B,/4) | _A,F,=E, | F,/G,/ _A,/B,/C | D,E,F, | B,, F,3/2G,/4_A,/4 | G,E,D, | %157
w: haett' * er|sich schon * *|ein- * ge-|fun * den , ach!|haett' * er|sich schon * *|ein * ge|
 E,/F,/ G,/A,/ =B,/C/ | D/C/!courtesy!_E/D/ (C/=B,/) | CC, (F,/G,/4_A,/4) | (G,F,/E,/) (D,/C,/) | %161
w: fun * den, * ach! *|haett' * * * er *|sich * schon * *|ein * * ge *|
 =B,,>A,,G,, | =B,CD | G,2 z | =B,CD | F,_A, z | z G,/F,/G, | z F,/D,/E,- | E,/C,/ =B,,>C, | %169
w: fun- * den;|ich freu- e|mich|auf mei- nen|Tod, ach!|haett' er sich|schon * ein-|* ge- fun- *|
 C,2 z | z3 | z3 | z3 |[M:3/8] z3 | z3 | z3 | z3 | z3 |[M:3/8] z3 | z3 | z3 | z3 | z3 |[M:3/8] z3 | %184
w: den.|||||||||||||||
 z3 | z3 | z3 | z3 | z2 |] %189
w: |||||
V:2
[K:Bb]"^ARIE.""^Vivace." G | ((c/d/))(e/f/)(g/_a/) | %2
"^Ich freue mich auf meinen Tod""^aus: Ich habe genug, Cantate BWV 82" (=B/c/)(d/e/)(f/d/) | %3
 (f/e/d/c/)d | (G[G=B]/[Bd]/).[df] |"^Johann Sebastian Bach""^1685 - 1750" [=B,FG] (e/d/c/=B/) | %6
 ([EGc]/G/[Ec]/[Gd]/).[Fce] | [!courtesy!=A,EF] (d/c/B/!courtesy!=A/) | ([DFB]/F/[DB]/[Fc]/).[Bd] | %9
 [B,DG] (c/B/A/G/) | (^F/G/A/B/(c/d/) | ([ce]/)[Ac]/[Bd]/)([GB]/[^FA]/[=EG]/) || %12
!p! (^F/G/A/B/(c/-d/) | ([ce]/)[Ac]/[Bd]/)([GB]/[^FA]/[=EG]/) | %14
!f! [D^F]/[=EG]/[FA]/[GB]/[Ac]/[Bd]/ | [c=e]/[d^f]/[eg]/[fa]/.[gb] | %16
 [!courtesy!_EGA]/[cea]/ T[Ad^f]>[=Bdg] | [=Bdg]2!p! [CG] | [ceg].e z | .[ceg].e z | z (f/e/.f) | %21
 z (f/e/.f) | z (e/d/c/d/) | c3 | [F!courtesy!=B][DG][=B,F] | [CE]2 [CEG] | %26
 (c/d/)([ce]/f/)(g/_a/) | (=B/c/)(d/e/)(f/d/) | (f/e/d/c/).d | ([DG][G=B]/[Bd]/).[df] | %30
 z (e/d/c/=B/) | ([Gc][c=e]/[eg]/).[g!courtesy!_b] | [=EBc]!f! (_a/g/f/=e/) | %33
 ([cf]/(c/[_Af]/))[cg]/.[f_a] | [D_AB] ([eg]/f/e/d/) | ([Be]/B/[Ge]/[Bf]/).[eg] | %36
 [EGc] (f/e/d/c/) | (=B/d/.G)F | (d/=B/.c) z |!p! z (f/e/(d/c/) | %40
 ([F_Ad]/)[DF=B]/[EGc]/)([E!courtesy!_A]/[DG]/[C^F]/) |!f! G (D/E/F/G/) | %42
 ([F!courtesy!=A]/[G=B]/[Ac]/[Bd]/).[ce] | [_A,CD]/[F_Ad]/ T[DG=B]>[EGc] |!p! c g2 | g3 | %46
 g(f/e/d/.c/) | =Bcd | GF[EG] | [CF]_dc | [F_Ac][CFA][C=EG] | .[_Acf].[FAc][CF] | [DF][EG][D_A] | %53
 Bc_A | G2 [DF] | .[GBe].[EGB][EG] | [CEB] !courtesy!=A2 | B2 B | ed/c/B | A!p! (A/B/((c/d/))) | %60
 ([^Fce]/[Ac]/[Bd]/)([GB]/[!courtesy!^FA]/[=EG]/) |!pp! ^F/G/A/B/c/d/ | x2 x | %63
 (^F/G/A/B/)([Fc]/[GB]/) | [^FA][Bd]/[Ac]/[GB] | [EGA][D^Fc][GB] | [EGA][DG][D^F] | %67
!f! [B,DG] z [A,D] | ((G/A/))(B/c/)(d/e/) | ^F/G/A/B/c/A/ | (c/B/A/G/).A | (D[D^F]/[CFA]/).[EAc] | %72
 z (B/A/G/^F/) | ([=B,DG][DG=B]/[!courtesy!=FBd]/).[_Ad!courtesy!=f] | [DFG] (e/d/c/=B/) | %75
 ([EGc]/G/[Ec]/[Gd]/).[ce] | [EFA] (d/c/B/A/) | ([DFB]/F/[DB]/[Fc]/).[Bd] | [B,DG] (c/B/A/G/) | %79
 (^F/G/A/B/c/d/) | x2 x |!p! (^F/G/A/B/c/d/) | x2 x |!f! [D^F]/[=EG]/[FA]/[GB]/[Ac]/[Bd]/ | %84
 [c=e]/[d^f]/[eg]/[fa]/.[gb] | [!courtesy!_EGA]/[cea]/ T[Ad^f]>[Bdg] | [Bdg]!p! [DGB][B,DG] | %87
 =E A2 | [Ad]/[F=B]/ G/_A/G/F/ | .[Ecg].[Gce][CG] | [CFc]2 F | B2 A | .[Bdf].[FBd] (B/A/) | %93
 G>^FG/-[Gd]/ | [CGe] [Fc][DAd] | [D^F]3 | x d g |{f} e3- | e(_a/g/f/e/) | d3- | d(g/f/e/_d/) | %101
 (c/!courtesy!=d/e/f/g/_a/) | (B>Bc/d/) | e/_d/eb- | b(_a/g/f/e/) | (d/c/B/_d/)c/B/ | %106
 (c/b/_a/g/f/e/) | c' [CF_A][_A,CF] |!p! [B,D]/[CE]/[DF]/E/F/G/ | x2 x | %110
!pp! [B,D]/[CE]/[DF]/E/F/G/ | x2 x | ([B,D]/[CE]/[DF]/)E/F/G/ | _A/B/c/d/e- | %114
 [Ge]/[Ec]/ T[_Ad]>[Ge] | [Ge]2!f! G | c/d/(e/f/)(g/_a/) | (=B/c/)(d/e/)(f/d/) | (f/e/d/c/).d | %119
 G z [DG=B] | [ceg].e z | .[ceg].e z |"^m" z (f/e/f) | z (f/e/f) | z (e/d/c/d/) | c3 | %126
 [F!courtesy!=B][DG][=B,F] | [CE]2 [CEG] | (c/d/)(e/f/)(g/_a/) | (=B/c/)(d/e/)(f/d/) | %130
 (f/e/d/c/).d | ([DG][G=B]/[Bd]/).[df] | z (e/d/c/=B/) | ([Gc][c=e]/[eg]/).[g!courtesy!_b] | %134
 [=EBc]!f! ([f_a]/g/f/=e/) | ([cf]/c/[_Af]/[cg]/).[f_a] | [D_AB] (g/f/e/d/) | %137
 ([Be]/B/[Ge]/[Bf]/).[eg] | [EGc] (f/e/d/c/) | x3 | (d/=B/(.c) z) | %141
!p![I:staff +1] =B,/C/D/E/[I:staff -1]F/G/ | ([F_Ad]/[DFB]/[EGc]/)([E!courtesy!_A]/[DG]/[C^F]/) | %143
!f! G (D/E/F/G/) | ([F!courtesy!=A]/[G=B]/[Ac]/[Bd]/).[ce] | [_A,CD]/[F_Ad]/ T[DG=B]>[EGc] | %146
!p! c g2 | g3 | g(f/e/d/c/) | =Bcd | GF[EG] | [CF]_dc | [F_Ac][CFA][C=EG] | .[_Acf].[FAc][CF] | %154
 [DF][EG][DB] | Bc_A |"E" G2 [DF] | .[GBe].[EGB][EGc] | [_Ac][G=B]-[Gc] | [CE]2 [DFB] | %160
 [CGc]2 [CD_A] |!p! [=B,DG] (d/e/(f/g/)) | %162
 [!courtesy!=Bf_a]/([df]/[eg]/)([ce]/[Bd]/[!courtesy!=Ac]/) |!pp! (=B/c/d/e/f/g/) | x3 | %165
 [G=B] [D_AB][EGc] | [FGd]-[EGe]/[F=Bd]/c | [EFc]G- G/E/- | E/D/ D>C | C2!f! G | %170
 (c/d/)(e/f/)(g/_a/) | (=B/c/)(d/e/)(f/d/) | (f/e/d/c/)d | (G[G=B]/[Bd]/).[df] | %174
 [=B,FG] (e/d/c/=B/) | ([Gc][c=e]/[eg]/).[gb] | [=EBc] (_a/g/f/=e/) | ([cf]/c/[_Af]/[cg]/.[f_a]) | %178
 [D_AB] (g/f/e/d/) | ([Be]/B/[Ge]/[Bf]/).[eg] | [EGc] (f/e/d/c/) | (=B/c/d/e/f/g/) | x2 x | %183
 (=B/c/d/e/f/g/) | x2 x |!f! =B/_a/(g/f/)(e/d/-) | %186
 ([df]/[ce]/[!courtesy!_Bd]/[_Ac]/)([Gd]/[F=B]/) | [Ec]/[F_Ad]/ T[DG=B]>[=EGc] | %188
 !fermata![=EGc]2 |] %189
V:3
[K:Bb] x | G[Gc]c | GG[G=B] | G_AA | x2 x | x [Gc][FG] | x2 x | x [FB][EF] | x2 x | x GE | DD^F- | %11
 F/ x2 x/ || DD^F- | F/ x2 x/ | x2 x | x2 x | x2 x | x2 x | z (c/=B/.c) | z (c/=B/.c) | .[dg].d z | %21
 .[dg].d z | [cg]GG | _AGF- | x2 x | x2 x | [EG]Gc | GGG | G[E_A][FA] | x2 x | [=B,F] [Gc][FG] | %31
 =E[I:staff +1]G,=E, |[I:staff -1] x [cf][Bc] | _A[I:staff +1]CF, |[I:staff -1] x B[_AB] | %35
 G[I:staff +1]B,E, |[I:staff -1] x c_A | GD/E/(F/G/ | ([F_A]/)[DF]/[EG]/)(E/D/C/) | DG=B | x2 x | %41
 =B,/[!courtesy!=A,C]/B,/C/D/E/ |[I:staff +1] C[I:staff -1]FG | x2 x | .[EG].[Gce] z | .[Gd].G z | %46
 cF[F_A] | [DG]2 [FG] | ED/C/=B, | x F=E | x2 x | x2 x | x2 x | E2 D | B,3 | x2 x | x C2 | %57
 D(E/F/)(G/E/) | ^FAD | ^F D[Fc] | x2 x | DD[^Fc]- | %62
 ([Fce]/[Ac]/[Bd]/)([GB]/[!courtesy!^FA]/[=EG]/) | D3 | D3 | x2 x | x2 D/C/ | x2 x | [A,D][DG]G | %69
 DD[D^F] | DEE | x2 x | [C^F] [DG][CD] | x2 x | x [Gc][FG] | x2 x | x [FB][EF] | x2 x | x GE | %79
 DD[^Fc]- | ([!courtesy!^Fce]/[Ac]/[Bd]/)([GB]/[!courtesy!^FA]/[=EG]/) | DD[^Fc]- | %82
 ([Fce]/[Ac]/[Bd]/)([GB]/[!courtesy!^FA]/[=EG]/) | x2 x | G[I:staff +1]CD |[I:staff -1] x2 x | %86
 x2 x | ^C2 D | D3 | x2 x | x2 x | FGC | x2 D- | DC/D/E/D/ | x2 x | x2 x | %96
 [B,DG][I:staff +1]B,[I:staff -1] z | [EG][EGc] z | [F_Ac][cf] z | [DF][DFB] z | [EGB][GBe] z | %101
 x2 x | F/G/_A<B- | (Bc/B/_A/G/) | (_A/B/c/B/A/G/) | .F.G z | .F.f z | z x2 | x2 F- | %109
 ([F_A]/[DF]/[B,G]/)([EG]/[DF]/[CE]/) | x2 F- | ([F_A]/[DF]/[B,G]/)([EG]/[DF]/[CE]/) | x2 C | %113
 [EF]_AG | x2 x | x2 x | Gcc | GG[G=B] | G_AA | x2 x | z (c/=B/c) | z (c/=B/c) | .[dg].d z | %123
 .[dg].d z | .[cg].GG | _AGF- | x2 x | x2 x | [EG][Gc]c | GGG | G[E_A][FA] | x2 x | %132
 [=B,F] [Gc][FG] | =E[I:staff +1]G,=E, |[I:staff -1] x c[Bc] | _A[I:staff +1]CF, | %136
[I:staff -1] x [Be][_AB] | G[I:staff +1]B,E, |[I:staff -1] x c_A | (=B/d/.G)(F | %140
 ([F_A]/[DF]/)[EG]/)E/D/C/ | DG=B- | x2 x | =B,/[!courtesy!=A,C]/B,/C/D/E/ | %144
[I:staff +1] C[I:staff -1]FG | x2 x | .[EG].[Gce] z | .[Gd].G z | cF[F_A] | [DG]2 [FG] | ED/C/=B, | %151
 x F=E | x2 x | x2 x | x2 x | E2 D | B,3 | x2 x | D2 C | x2 x | x2 x | x G=B- | x2 x | G G[=Bf]- | %164
 [Bf_a]/[df]/[eg]/([ce]/[!courtesy!=Bd]/[!courtesy!=Ac]/) | x2 x | x2 G/E/ | x D/F/E/C/ | %168
 [_A,C] [G,=B,]2 | x2 x | G[Gc]c | GG[G=B] | G_AA |[I:staff +1] DD/[I:staff -1]F/._A | x [Gc][FG] | %175
 [=EG][I:staff +1]G,=E, |[I:staff -1] x [cf][Bc] | _A[I:staff +1]CF, |[I:staff -1] x [Be][_AB] | %179
 G[I:staff +1]B,[C,E,] |[I:staff -1] x c_A | G G[=Bf]- | %182
 ([Bf_a]/[df]/[eg]/)([ce]/[=Bd]/[!courtesy!=Ac]/) | GG(=B- | %184
 ([Bf_a]/)[df]/[eg]/)([ce]/[=Bd]/[!courtesy!=Ac]/) | G/ x/ cG- | GF x | x2 x | x2 |] %189
V:4
[K:Bb] [CE] | E (C,/D,/)(E,/F,/) | (G,/A,/=B,/C/)(D/B,/) | C[_A,E][F,F] | ([G,=B,]D,)=B,, | %5
 G,,/D,/(G,/F,/)(E,/D,/) | E,C,!courtesy!=A,, | F,,/C,/(F,/E,/)(D,/C,/) | D,B,,G,, | x G,C | %10
 [D,A,][^F,C]A, | D,,2 z ||!p! [D,A,][^F,C]A, | D,,2 z |!f! [D,A,]D[C!courtesy!_E] | B,A,G, | %16
 C,D,D,, | G,,!p! (G,/F,/E,/D,/) | .C,.C z | .C,.C z | .[=B,,G,].[=B,D] z | .[=B,,G,][=B,D] z | %22
 [C,G,]CE, | (F,/=E,/)(F,/G,/)_A, | G,=B,,G,, | C,(G,,/F,,/)(E,,/D,,/) | C,,(C,/D,/)(E,/F,/) | %27
 G,=B,,G,, | C,_A,,F,, | [G,=B,][D,D][=B,,G,] | G,,/D,/(G,/F,/)(E,/D,/) | =E,C,!f!G,, | %32
 C,/G,/(C/B,/)(_A,/G,/) | _A,F,D, | B,,/F,/(B,/_A,/)(G,/F,/) | G,E,C, | x CF | %37
 [G,,D,][=B,,G,][D,=B,] | [G,,=B,,] z/ (C/=B,/!courtesy!=A,/) |!p! G,=B,D | %40
 =B, z/ (C/B,/!courtesy!=A,/) |!f! [G,,G,]G,[F,_A,] | E,D,C, | F,G,G,, |!p! C,, (C,/D,/)(E,/F,/) | %45
 G,=B,,G,, | C,_A,,F,, | G,,!courtesy!=A,,=B,, | C,2 G,, | _A,,B,,C, | F,,_A,,C, | %51
 F,, (F,/G,/)(_A,/F,/) | B,2 F, | (G,_A,)B, | E,G,,B,, | E,, E,D, | C,F,F,, | B,,(C,/D,/)(E,/C,/) | %58
 !courtesy!=A,,^F,G, | [D,A,]!p![^F,C]A, | D,,2 z |!pp! [D,A,][^F,C]A, | D,,2 z | %63
 (D,/=E,/^F,/G,/)(A,/B,/) | C^F,G, | C,D,E, | C,D,D,, |!f! x2 G, | (G,,/^F,,/)(G,,/A,,/)(B,,/C,/) | %69
 A,A, x | G,[E,B,][C,C] | A,A,/ x x/ | D,,/A,,/(D,/C,/)(B,,/A,,/) | G,,G,D, | %74
 =B,,/G,,/G,/F,/(E,/D,/) | E,C,A,, | F,,/C,/(F,/E,/)(D,/C,/) | D,B,,G,, | x G,C | [D,A,][^F,C]A, | %80
 D,,2 z |!p! [D,A,][^F,C]A, | D,,2 z |!f! [D,A,]D[CE] | B,A,G, | C,D,D,, | G,,!p! G,2- | %87
 G,F,/=E,/F, | F,/_A,/(G,/F,/)(E,/D,/) | (E,/D,/C,/D,/)E,- | E,/G,/(F,/E,/)(D,/C,/) | D,C,F, | %92
 B,, (B,/A,/)(G,/F,/) | (!courtesy!_E,/F,/E,/D,/)(C,/B,,/) | A,, (A,/G,/)(^F,/=E,/) | %95
 (D,/!courtesy!_E,/D,/C,/)(B,,/A,,/) | G,, (G,/!courtesy!=F,/)(=E,/D,/) | %97
 (C,/_D,/C,/B,,/)(_A,,/G,,/) | F,, (F,/!courtesy!_E,/)(!courtesy!=D,/C,/) | %99
 (B,,/C,/B,,/_A,,/)(G,,/F,,/) | E,, (E,/D,/)(C,/B,,/) | _A,, _A,2- | A,G,/F,/G,- | %103
 G,(_A,/G,/F,/E,/) | _A,_A,,A,- | A,(G,/F,/)(E,/D,/) | (E,/D,/C,/B,,/)E, | _A,,C,F, |!p! B,3 | %109
 B,3 |!pp! B,2 x | B,3- | B, x2 | CF,E, | _A,,B,,-[B,,,B,,] | E,,2!f! [CE] | E (C,/D,/)(E,/F,/) | %117
 (G,/A,/=B,/C/)(D/B,/) | C[_A,E][F,F] | [G,=B,D] G,,F,, | E,,E, z | E,,E, z | .[=B,,G,].[=B,D] z | %123
 .[=B,,G,].[=B,D] z | .[C,G,]CE, | (F,/=E,/)(F,/G,/)_A, | D,=B,,G,, | C,(G,,/F,,/)(E,,/D,,/) | %128
 C,,(C,/D,/)(E,/F,/) | G,=B,,G,, | C,_A,,F,, | [G,=B,][D,D][=B,,G,] | G,,/D,/(G,/F,/)(E,/D,/) | %133
 =E,C,!f!G,, | C,/G,/(C/B,/)(_A,/G,/) | _A,F,D, | B,,/F,/(B,/_A,/)(G,/F,/) | G,E,C, | x CF | %139
 [G,,D,][=B,,G,][D,=B,] | [G,,=B,,] z/ (C/=B,/A,/) |!p! x2 x |"^1" =B, z/ (C/B,/!courtesy!=A,/) | %143
!f! [G,,G,]G,[F,_A,] | E,D,C, | F,G,G,, |!p! C,, (C,/D,/)(E,/F,/) | G,=B,,G,, | C,_A,,F,, | %149
 G,,!courtesy!=A,,=B,, | C,2 G,, | _A,,B,,C, | F,,_A,,C, | F,, (F,/G,/)(_A,/F,/) | B,2 _A, | %155
 (G,_A,)B, | E,G,,B,, | E,, E,C, | F,G,E, | _A,(G,/F,/)(E,/D,/) | E,2 F,, |!p! G,,=B,,D, | G,,2 z | %163
!pp! [G,D][=B,F]D | G,,2 z | G,,/G,/(F,/E,/)(D,/C,/) | (=B,,/G,,/C,/D,/)(E,/C,/) | %167
 (!courtesy!=A,,/C,/)(=B,,/D,/)C, | F,,G,,[G,,,G,,] | [E,G,]2!f! [CE] | E (C,/D,/)(E,/F,/) | %171
 (G,/A,/=B,/C/)(D/B,/) | C[_A,E][F,F] | [G,=B,]D,=B,, | G,,/D,/(G,/F,/)(E,/D,/) | =E,C,G,, | %176
 C,/G,/(C/B,/)(_A,/G,/) | _A,F,D, | B,,/F,/(B,/_A,/)(G,/F,/) | G,E,C, | x CF | [G,D][=B,F]D | %182
 G,,2 z | [G,D][=B,F]D | G,,2 z |!f! D/F/E/D/ x | C/C,/(D,/E,/)([F,=B,]/[G,D]/) | %187
 [_A,C]/F,/ G,G,, | !fermata![C,,C,]2 |] %189
V:5
[K:Bb] z | z x2 | x2 x | x2 x | DD/[I:staff -1]F/._A |[I:staff +1] x2 x | x2 x | x2 x | x2 x | %9
 E,,E,C, | x2 x | x2 x || x2 x | x2 x | x2 x |[I:staff -1] G[I:staff +1]CD | x2 x | x2 x | x3 | %19
 x3 | x3 | x3 | x3 | x3 | x3 | x3 | x3 | x3 | x3 | x3 | x3 | x3 | x3 | x3 | x3 | x3 | _A,,_A,F, | %37
 x2 x | x z z | x2 x | G,2 z | x2 x | x2 x | x2 x | x2 x | x2 x | C2 x | x2 x | x3 | x3 | x3 | x3 | %52
 x3 | x3 | x3 | x3 | x3 | x3 | x3 | x3 | x3 | x3 | x3 | x3 | x3 | x3 | x2 x | %67
 G,,/ (G,/D,/C,/)(B,,/(A,,/) | x2) x | (D,/=E,/^F,/)G,/(A,/F,/) | x2 x | [D,^F,]A,,^F,, | x3 | x3 | %74
 x3 | x3 | x3 | x3 | E,,E,C, | x2 x | x2 x | x2 x | x2 x | x2 x | x2 x | x2 x | x2 x | A,3 | x2 x | %89
 x2 x | x3 | x3 | x3 | x3 | x3 | x3 | x2 x | x2 x | x2 x | x2 x | x2 x | x2 C | x3 | x3 | x3 | x3 | %106
 x3 | x3 | B,F,D, | B,,2 z | _A,F,D, | B,,2 z | B,,B,G, | x2 x | x2 x | x2 z | z x2 | x2 x | x2 x | %119
 x2 x | x3 | x3 | x3 | x3 | x3 | x3 | x3 | x3 | x3 | x3 | x3 | x3 | x3 | x3 | x3 | x3 | x3 | x3 | %138
 _A,,_A,F, | x2 x | x z z | G,=B,D | G,2 z | x2 x | x2 x | x2 x | x2 x | x2 x | C2 x | x2 x | x3 | %151
 x3 | x3 | x3 | x3 | x3 | x3 | x3 | x3 | x3 | x3 | x3 | x3 | x3 | x3 | x3 | x3 | x2 x | x2 x | %169
 [C,,C,]2 z | z x2 | x2 x | x2 x | x3 | x3 | x3 | x3 | x3 | x2 x | x2 x | _A,,_A,F, | x2 x | x2 x | %183
 x2 x | x2 x | G,!courtesy!=A,=B, | x2 x | x2 x | x2 |] %189
V:6
[K:Bb] x | x3 | x3 | x3 | x3 | x3 | x3 | x3 | x3 | x3 | x3 | x3 || x3 | x3 | x3 | x3 | x3 | x3 | %18
 x3 | x3 | x3 | x3 | x3 | x3 | x3 | x3 | x3 | x3 | x3 | x3 | x3 | x3 | x3 | x3 | x3 | x3 | x2 x | %37
 x2 x | x2 x |[I:staff +1] =B,/C/D/E/[I:staff -1]F/G/ | x2 x | x2 x | x3 | x3 | x3 | x3 | x3 | x3 | %48
 x2 x | x G2 | x2 x | x2 x | x2 x | x2 x | B,E x | x2 x | x FE | x2 x | x2 x | x2 x | x3 | x3 | %62
 x3 | x3 | x3 | x3 | x3 | x3 | x3 | x3 | x3 | x3 | x3 | x3 | x3 | x3 | x3 | x3 | x3 | x3 | x3 | %81
 x3 | x3 | x3 | x2 x | x2 x | x2 x | x2 x | x T=B>c | x2 x | x3 | x3 | x3 | x3 | x3 | x3 | z D x | %97
 x2 x | x2 x | x2 x | x2 x | x2 x | x3 | x3 | x3 | x3 | x3 | x3 | x3 | x3 | x3 | x3 | x3 | x3 | %114
 x3 | x3 | x3 | x3 | x3 | x3 | x3 | x3 | x3 | x3 | x3 | x3 | x3 | x3 | x3 | x3 | x3 | x3 | x3 | %133
 x3 | x3 | x3 | x3 | x3 | x2 x | GD/E/F/G/ | x2 x | z (f/e/d/c/) | x2 x | x2 x | x3 | x3 | x3 | %147
 x3 | x3 | x3 | x2 x | x G2 | x2 x | x2 x | x2 x | x2 x | B,E x | x2 x | x2 x | x2 x | x2 x | %161
 x2 x | x3 | x3 | x3 | x3 | x3 | x3 | x3 | x3 | x3 | x3 | x3 | x3 | x3 | x3 | x3 | x3 | x3 | x3 | %180
 x3 | x3 | x3 | x3 | x3 | x3 | x3 | x3 | x2 |] %189

